!!!Genre:	Freylekhs
!!!Mode:	Minor
!!!Edition:	2015
!!!Listening/dance:	dance
!!!Free rhythm?:	No
!!!Secondary Modes:	All minor
!!!One_Mode:	yes
**kern
*I"P1
*clefG2
*k[b-e-]
*g:
*M2/4
*>A
=1
8gL
(8qff#X/
8ggJ)
8gL
(8qff#/
8ggJ)
=2
16ffnLL
16ee-
16dd
16ccJJ
8.ddL
16b-Jk
=3
8gL
(8qff#X/
8gg)
(8qff#/
8gg)
(8qff#/
8ggJ)
=4
16ffnLL
16ee-
16dd
16ccJJ
8.ddL
16ddJk
=5
8.ggL
16ddJk
8.ccL
16b-Jk
=6
16ccLL
16dd
24ee-
24dd
24ccJJ
16b-LL
16a
16g
16fJJ
=7
8b-L
8b-J
(8qdd/
16ccLL)
16b-
16cc
16ee-JJ
=8
8dd
8r
4gg^
=9
(16ggLL
16ff)
(16aa-X
16ggJJ)
(16ffLL
16ee-)
16gg
16ffJJ
=10
(16ee-LL
16dd)
16ff
16ee-JJ
8ddL
16ccL
16b-JJ
=11
(16ddLL
16cc)
(16cc
16b-JJ)
(16b-LL
16a)
(16a
16gJJ)
=12
4.g
8g
=13:|!|:
*>B
(16b-LL
16ddJ)
8ccJ
8ccL
8ccJ
=14
16ccLL
16dd
16ee-
16ddJJ
8.ccL
16ccJk
=15
16ccLL
16b-
16cc
16b-JJ
16ddLL
16cc
16b-
16aJJ
=16
16b-LL
16cc
16dd
16ee-JJ
8.ffL
16b-Jk
=17
(16b-LL
16ddJ)
8ccJ
8ccL
8ccJ
=18
4gg
16ffLL
16ee-
16dd
16ccJJ
=19
8b-L
8b-J
16a-XLL
16gJ
24a-L
24g
24fJJ
=20
4.g
8g
=21:|!
4.g
8gg
=22!|:
*>C
[4gg
16ggLL]
16ff
16bb-
16aaJJ
=23
[4gg
16ggLL]
16ff
16bb-
16aaJJ
=24
(16ggLL
16ff)
16bb-
16aaJJ
(16ggLL
16ff)
16bb-
16aaJJ
=25
16ggLL
16ff
16bb-
16aaJJ
8.ggL
16ggJk
=26
16aa-XLL
16gg
16ff
16ee-JJ
16ffLL
16ee-
16dd
16ccJJ
=27
16ddLL
16cc
16b-
16aJJ
8b-L
8ccJ
=28
(16ddLL
16cc)
(16cc
16b-JJ)
(16b-LL
16a)
(16a
16gJJ)
=29
16gLL
16a
16b-
16ccJJ
16ddLL
16ee-
16ff
16ggJJ
=30
16aa-XLL
16gg
16ff
16ee-JJ
16ffLL
16ee-
16dd
16ccJJ
=31
16ddLL
16cc
16b-
16aJJ
8b-L
8ccJ
=32
(16ddLL
16cc)
(16cc
16b-JJ)
(16b-LL
16a)
(16a
16gJJ)
=33
4.g
8gg
=34:|!
8g
8r
8gg
8r
==
*-
